assets/svg/desktop-o.svg

<?xml version="1.0" encoding="UTF-8"?>
<svg width="1000px" height="1000px" viewBox="0 0 1000 1000" version="1.1" xmlns="http://www.w3.org/2000/svg" xmlns:xlink="http://www.w3.org/1999/xlink">
    <!-- Generator: sketchtool 52.4 (67378) - http://www.bohemiancoding.com/sketch -->
    <title>desktop-o</title>
    <desc>Created with sketchtool.</desc>
    <g id="新版图标" stroke="none" stroke-width="1" fill="none" fill-rule="evenodd">
        <g id="desktop-o" fill="#323233">
            <g id="直角-外接设备管理-线-">
                <path d="M777.777778,555.555556 L666.666667,555.555556 L333.333333,555.555556 L222.222222,555.555556 L222.222222,111.111111 L777.777778,111.111111 L777.777778,555.555556 Z M388.888889,666.666667 L611.111111,666.666667 L611.111111,611.111111 L388.888889,611.111111 L388.888889,666.666667 Z M722.222222,722.222222 L722.222222,888.888889 L277.777778,888.888889 L277.777778,722.222222 L333.333333,722.222222 L666.666667,722.222222 L722.222222,722.222222 Z M777.777778,55.5555556 L222.222222,55.5555556 C191.5,55.5555556 166.666667,80.4444444 166.666667,111.111111 L166.666667,555.555556 C166.666667,586.277778 191.5,611.111111 222.222222,611.111111 L333.333333,611.111111 L333.333333,666.666667 L277.777778,666.666667 C247.055556,666.666667 222.222222,691.555556 222.222222,722.222222 L222.222222,888.888889 C222.222222,919.611111 247.055556,944.444444 277.777778,944.444444 L722.222222,944.444444 C752.944444,944.444444 777.777778,919.611111 777.777778,888.888889 L777.777778,722.222222 C777.777778,691.555556 752.944444,666.666667 722.222222,666.666667 L666.666667,666.666667 L666.666667,611.111111 L777.777778,611.111111 C808.5,611.111111 833.333333,586.277778 833.333333,555.555556 L833.333333,111.111111 C833.333333,80.4444444 808.5,55.5555556 777.777778,55.5555556 Z M555.555556,833.361111 L666.666667,833.361111 L666.666667,777.805556 L555.555556,777.805556 L555.555556,833.361111 Z" id="Fill-1"></path>
            </g>
        </g>
    </g>
</svg>

<svg width="1000" height="1000" xmlns="http://www.w3.org/2000/svg"><path d="M777.778 555.556H222.223V111.11h555.555v444.445zm-388.89 111.11h222.223v-55.555H388.89v55.556zm333.334 55.556V888.89H277.778V722.222h444.444zm55.556-666.666H222.222c-30.722 0-55.555 24.888-55.555 55.555v444.445c0 30.722 24.833 55.555 55.555 55.555h111.111v55.556h-55.555c-30.722 0-55.556 24.889-55.556 55.555V888.89c0 30.722 24.834 55.555 55.556 55.555h444.444c30.722 0 55.556-24.833 55.556-55.555V722.222c0-30.666-24.834-55.555-55.556-55.555h-55.555V611.11h111.11c30.723 0 55.556-24.833 55.556-55.555V111.11c0-30.667-24.833-55.555-55.555-55.555zM555.556 833.36h111.11v-55.555h-111.11v55.555z" fill="#323233" fill-rule="evenodd"/></svg>
